X:88
T:Rondeau de Marcel Gleyzes
R:rondeau
C:trad.
A:Landes
O:France
Z:S. Piron
M:6/8
L:1/8
Q:1/4=185
K:C
g2gdef|e2de2c|g2gdef|e2dc3:|
|:c2ccdc|B2cd3|d2ddef|1e2de2c:|2e2dc3||
